packages/swarm-icons/src/icons/solid/Meetup.svg

<svg xmlns="http://www.w3.org/2000/svg" width="18" height="18" viewBox="0 0 18 18">
  <path fill="#A2A2A2" d="M11.3342261,11.8106303 C11.3349536,12.8220483 12.030279,13.7157855 13.0162141,14.0195506 C13.5103568,14.1719296 14.0200569,14.2441999 14.5373119,14.2654681 C14.9066038,14.2803611 15.275448,14.2562711 15.6166472,14.0974646 C15.8849281,13.9723633 16.0113458,13.7657424 15.9992021,13.4904047 C15.9870583,13.2132902 15.854205,13.00599 15.5703108,12.8957295 C15.4716501,12.8574258 15.3714785,12.8262811 15.266718,12.8092456 C14.9536117,12.7571462 14.6389945,12.7131987 14.3273991,12.6554557 C13.8131661,12.5597746 13.5976012,12.3056529 13.5907739,11.8201409 C13.58473,11.3906475 13.7095808,10.9855577 13.8511082,10.5847529 C14.1099316,9.85118082 14.4590773,9.15199333 14.793449,8.44710991 C15.1164046,7.76636885 15.4549176,7.09127144 15.6830179,6.37431685 C15.8086521,5.9806189 15.8685872,5.58582357 15.7543692,5.17864353 C15.5805518,4.56060987 15.1839505,4.14637524 14.5000413,4.02723119 C13.8738287,3.91843385 13.250694,3.90604914 12.6844165,4.25475453 C12.496161,4.37029291 12.3151246,4.3426494 12.1516042,4.20798526 C12.0267534,4.10556318 11.9079465,3.99713163 11.7857259,3.89188772 C11.2081441,3.39399097 10.4445453,3.36953509 9.82443258,3.82421598 C9.57433927,4.00779189 9.36369904,4.23531524 9.09194852,4.39480105 C8.8490743,4.53725136 8.60429737,4.57764538 8.33523301,4.44366057 C8.07903987,4.31610327 7.81378092,4.20380477 7.54924948,4.09181981 C7.28130436,3.97878972 7.02169755,3.83916125 6.72000747,3.81538469 C5.76591467,3.73956099 4.7673882,4.26902046 4.34649948,5.07381767 C4.15975494,5.42994343 4.00720306,5.79996934 3.86259776,6.17239903 C3.1950294,7.89403066 2.65119259,9.65245062 2.08838473,11.4049134 C1.83638872,12.1891217 2.13388167,12.9609452 2.84510024,13.3844814 C3.39996152,13.7147404 4.00753883,13.7963123 4.63643758,13.619791 C5.14608173,13.4766091 5.42505132,13.0935714 5.62013417,12.6632941 C6.26833975,11.2358647 6.85202136,9.78429293 7.46989564,8.34547167 C7.6399076,7.94963122 7.80460319,7.55201405 7.98491212,7.16040635 C8.16706779,6.76493169 8.69042258,6.6302153 9.00089867,6.89248899 C9.19027341,7.05260188 9.24035923,7.26570252 9.22177991,7.49353941 C9.20129789,7.73700088 9.1003428,7.96165014 9.00543158,8.18525427 C8.6035139,9.13433074 8.19404138,10.0805331 7.790221,11.028878 C7.70862869,11.2206059 7.62020904,11.4109228 7.58416964,11.6167599 C7.52233185,11.9701161 7.67219756,12.2833918 7.98189018,12.4081272 C8.29768264,12.535371 8.62556285,12.5566393 8.95305133,12.4456994 C9.33409525,12.3167312 9.56180383,12.0381536 9.73713216,11.7163601 C10.3398408,10.6110377 10.9379606,9.50320701 11.5402215,8.39793686 C11.8184076,7.88728961 12.1015184,7.3790984 12.3858043,6.87158652 C12.4912923,6.68341207 12.6150239,6.50516629 12.8124012,6.38821699 C12.9904157,6.28297308 13.1824206,6.27513465 13.364968,6.37086795 C13.5429825,6.46404069 13.5550703,6.63418677 13.5475154,6.80213808 C13.5433183,6.89248899 13.5164007,6.98074965 13.4791861,7.06472531 C13.4010074,7.23941767 13.3281452,7.41661833 13.2415722,7.58780953 C12.7406022,8.57189763 12.2320773,9.55217104 11.7356401,10.5384017 C11.526231,10.9547788 11.3083717,11.3729849 11.3342261,11.8106303 Z"/>
</svg>

<svg xmlns="http://www.w3.org/2000/svg" width="18" height="18"><path fill="#A2A2A2" d="M11.334 11.81c.001 1.012.696 1.906 1.682 2.21a5.97 5.97 0 001.521.245c.37.015.738-.009 1.08-.168.268-.125.394-.331.382-.607a.623.623 0 00-.429-.594 1.505 1.505 0 00-.303-.087c-.313-.052-.628-.096-.94-.154-.514-.095-.73-.35-.736-.835-.006-.43.119-.834.26-1.235.259-.734.608-1.433.942-2.138.323-.68.662-1.356.89-2.073.126-.393.186-.788.071-1.195-.173-.618-.57-1.033-1.254-1.152-.626-.109-1.25-.121-1.816.228-.188.115-.369.088-.532-.047-.125-.102-.244-.21-.366-.316-.578-.498-1.341-.522-1.962-.068-.25.184-.46.411-.732.57-.243.143-.488.184-.757.05-.256-.128-.521-.24-.786-.352-.268-.113-.527-.253-.829-.277-.954-.075-1.953.454-2.374 1.259-.186.356-.339.726-.483 1.098-.668 1.722-1.212 3.48-1.775 5.233-.252.784.046 1.556.757 1.98a2.22 2.22 0 001.791.235c.51-.143.79-.526.984-.957.648-1.427 1.232-2.879 1.85-4.318.17-.395.335-.793.515-1.185.182-.395.705-.53 1.016-.268.19.16.24.374.22.602-.02.243-.12.468-.216.691-.401.95-.811 1.896-1.215 2.844-.081.192-.17.382-.206.588-.062.353.088.666.398.791.316.127.644.149.971.038.381-.13.609-.408.784-.73.603-1.105 1.201-2.213 1.803-3.318.278-.51.562-1.019.846-1.526.105-.189.229-.367.426-.484a.544.544 0 01.553-.017c.178.093.19.263.183.431a.738.738 0 01-.069.263c-.078.174-.15.352-.237.523-.501.984-1.01 1.964-1.506 2.95-.21.417-.428.835-.402 1.273z"/></svg>
